assets/img/fire.svg

<svg fill="none" height="80" viewBox="0 0 80 80" width="80" xmlns="http://www.w3.org/2000/svg"><g fill="#f2545b"><circle cx="40" cy="40" fill-opacity=".15" r="40"/><path d="m49.25 38.6667c-.3833-.5-.8333-.9334-1.2667-1.3667-1.0833-1-2.3333-1.7167-3.3833-2.7667-2.4333-2.4333-2.9333-6.45-1.4167-9.5333-1.5166.3833-2.9166 1.25-4.0833 2.2-4.2333 3.4667-5.9 9.5833-3.9 14.8333.0667.1667.1333.3334.1333.55 0 .3667-.25.7-.5833.8334-.3667.1666-.7667.0666-1.0667-.2-.1-.0834-.1666-.1667-.25-.2834-1.8333-2.3833-2.1333-5.8-.8833-8.5333-2.7333 2.2667-4.2167 6.1-3.9833 9.7167.0666.8333.1666 1.6666.45 2.5.2333 1 .6666 2 1.2 2.8833 1.7333 2.8833 4.7833 4.95 8.0666 5.3667 3.5.45 7.25-.2 9.9334-2.6667 3-2.7667 4.0833-7.2 2.5-11l-.2167-.4333c-.3333-.7667-.7833-1.45-1.3333-2.0834zm-5.1667 10.5c-.4666.4-1.2166.8333-1.8 1-1.8333.6666-3.6666-.2667-4.7833-1.3667 1.9833-.4667 3.15-1.9333 3.4833-3.4167.2834-1.3333-.2333-2.4333-.45-3.7166-.2-1.2334-.1666-2.2834.3-3.4334.2834.6334.6167 1.2667 1 1.7667 1.2667 1.6667 3.25 2.4 3.6667 4.6667.0667.2333.1.4666.1.7166.05 1.3667-.5333 2.8667-1.5333 3.7834z"/></g></svg>

<svg width="80" height="80" viewBox="0 0 80 80" fill="none" xmlns="http://www.w3.org/2000/svg">
<circle cx="40" cy="40" r="40" fill="#F2545B" fill-opacity="0.15"/>
<path d="M49.25 38.6667C48.8667 38.1667 48.4167 37.7333 47.9833 37.3C46.9 36.3 45.65 35.5833 44.6 34.5333C42.1667 32.1 41.6667 28.0833 43.1833 25C41.6667 25.3833 40.2667 26.25 39.1 27.2C34.8667 30.6667 33.2 36.7833 35.2 42.0333C35.2667 42.2 35.3333 42.3667 35.3333 42.5833C35.3333 42.95 35.0833 43.2833 34.75 43.4167C34.3833 43.5833 33.9833 43.4833 33.6833 43.2167C33.5833 43.1333 33.5167 43.05 33.4333 42.9333C31.6 40.55 31.3 37.1333 32.55 34.4C29.8167 36.6667 28.3333 40.5 28.5667 44.1167C28.6333 44.95 28.7333 45.7833 29.0167 46.6167C29.25 47.6167 29.6833 48.6167 30.2167 49.5C31.95 52.3833 35 54.45 38.2833 54.8667C41.7833 55.3167 45.5333 54.6667 48.2167 52.2C51.2167 49.4333 52.3 45 50.7167 41.2L50.5 40.7667C50.1667 40 49.7167 39.3167 49.1667 38.6833L49.25 38.6667ZM44.0833 49.1667C43.6167 49.5667 42.8667 50 42.2833 50.1667C40.45 50.8333 38.6167 49.9 37.5 48.8C39.4833 48.3333 40.65 46.8667 40.9833 45.3833C41.2667 44.05 40.75 42.95 40.5333 41.6667C40.3333 40.4333 40.3667 39.3833 40.8333 38.2333C41.1167 38.8667 41.45 39.5 41.8333 40C43.1 41.6667 45.0833 42.4 45.5 44.6667C45.5667 44.9 45.6 45.1333 45.6 45.3833C45.65 46.75 45.0667 48.25 44.0667 49.1667H44.0833Z" fill="#F2545B"/>
</svg>
